svg/icon/brd.svg

<svg height="32" viewBox="0 0 32 32" width="32" xmlns="http://www.w3.org/2000/svg" xmlns:xlink="http://www.w3.org/1999/xlink"><defs><linearGradient id="a" x1="50%" x2="50%" y1="0%" y2="100%"><stop offset="0" stop-color="#fff" stop-opacity=".5"/><stop offset="1" stop-opacity=".5"/></linearGradient><circle id="b" cx="16" cy="15" r="15"/><filter id="c" height="111.7%" width="111.7%" x="-5.8%" y="-4.2%"><feOffset dy=".5" in="SourceAlpha" result="shadowOffsetOuter1"/><feGaussianBlur in="shadowOffsetOuter1" result="shadowBlurOuter1" stdDeviation=".5"/><feComposite in="shadowBlurOuter1" in2="SourceAlpha" operator="out" result="shadowBlurOuter1"/><feColorMatrix in="shadowBlurOuter1" values="0 0 0 0 0   0 0 0 0 0   0 0 0 0 0  0 0 0 0.199473505 0"/></filter><path id="d" d="m8 8.03903478c0-.57384307.47201925-1.03903478 1.0542845-1.03903478h7.5873918c4.4763883 0 6.0549345.52803407 7.1437857 1.60113556.6819081.69548809 1.0371036 1.64064384.9793899 2.60610364 0 1.8509581-.9966733 3.1057487-3.6871152 3.6564939 2.598264.4542229 3.9175599 1.510291 3.9175599 3.6337829.0512189.9989837-.3176617 1.9745984-1.0197178 2.6969482-1.0658067 1.0503903-2.8056642 1.8055358-7.4894527 1.8055358h-7.4318416c-.58226525 0-1.0542845-.4651917-1.0542845-1.0390348zm5.7611175 5.96167492c0-.382562.3146795-.6926898.7028563-.6926898h2.4427139c1.3941904 0 2.4369527-.0681335 2.9208865-.5677786.2277176-.2405489.3444688-.5631347.3226226-.8914123.0302361-.3201131-.0786282-.6378552-.2995781-.874379-.489695-.4826118-1.5324572-.5677786-2.943931-.5677786h-4.5455217v9.2320795h4.4994327c1.5324573 0 2.6673974-.1135557 3.1974202-.6415898.2439843-.2503466.3694956-.5905102.3456671-.9368346.0226089-.3529547-.1022879-.6996589-.3456671-.9595458-.5357839-.5280341-1.670724-.5677786-3.1974202-.5677786h-2.3793415c-.1934519.0047942-.380351-.0692292-.5166391-.2046205-.1362882-.1353913-.2099064-.320171-.2035006-.5107805z"/><filter id="e" height="121.9%" width="120.6%" x="-10.3%" y="-7.8%"><feOffset dy=".5" in="SourceAlpha" result="shadowOffsetOuter1"/><feGaussianBlur in="shadowOffsetOuter1" result="shadowBlurOuter1" stdDeviation=".5"/><feColorMatrix in="shadowBlurOuter1" values="0 0 0 0 0   0 0 0 0 0   0 0 0 0 0  0 0 0 0.204257246 0"/></filter></defs><g fill="none" fill-rule="evenodd"><use fill="#000" filter="url(#c)" xlink:href="#b"/><use fill="#fe5d86" xlink:href="#b"/><use fill="url(#a)" xlink:href="#b"/><circle cx="16" cy="15" r="14.5" stroke="#000" stroke-opacity=".097"/><g fill-rule="nonzero"><use fill="#000" filter="url(#e)" xlink:href="#d"/><use fill="#fff" fill-rule="evenodd" xlink:href="#d"/></g></g></svg>

<svg xmlns="http://www.w3.org/2000/svg" xmlns:xlink="http://www.w3.org/1999/xlink" width="32" height="32" viewBox="0 0 32 32">
  <defs>
    <linearGradient id="brd-c" x1="50%" x2="50%" y1="0%" y2="100%">
      <stop offset="0%" stop-color="#FFF" stop-opacity=".5"/>
      <stop offset="100%" stop-opacity=".5"/>
    </linearGradient>
    <circle id="brd-b" cx="16" cy="15" r="15"/>
    <filter id="brd-a" width="111.7%" height="111.7%" x="-5.8%" y="-4.2%" filterUnits="objectBoundingBox">
      <feOffset dy=".5" in="SourceAlpha" result="shadowOffsetOuter1"/>
      <feGaussianBlur in="shadowOffsetOuter1" result="shadowBlurOuter1" stdDeviation=".5"/>
      <feComposite in="shadowBlurOuter1" in2="SourceAlpha" operator="out" result="shadowBlurOuter1"/>
      <feColorMatrix in="shadowBlurOuter1" values="0 0 0 0 0   0 0 0 0 0   0 0 0 0 0  0 0 0 0.199473505 0"/>
    </filter>
    <path id="brd-e" d="M8,8.03903478 C8,7.46519171 8.47201925,7 9.0542845,7 L16.6416763,7 C21.1180646,7 22.6966108,7.52803407 23.785462,8.60113556 C24.4673701,9.29662365 24.8225656,10.2417794 24.7648519,11.2072392 C24.7648519,13.0581973 23.7681786,14.3129879 21.0777367,14.8637331 C23.6760007,15.317956 24.9952966,16.3740241 24.9952966,18.497516 C25.0465155,19.4964997 24.6776349,20.4721144 23.9755788,21.1944642 C22.9097721,22.2448545 21.1699146,23 16.4861261,23 L9.0542845,23 C8.47201925,23 8,22.5348083 8,21.9609652 L8,8.03903478 Z M13.7611175,14.0007097 C13.7611175,13.6181477 14.075797,13.3080199 14.4639738,13.3080199 L16.9066877,13.3080199 C18.3008781,13.3080199 19.3436404,13.2398864 19.8275742,12.7402413 C20.0552918,12.4996924 20.172043,12.1771066 20.1501968,11.848829 C20.1804329,11.5287159 20.0715686,11.2109738 19.8506187,10.97445 C19.3609237,10.4918382 18.3181615,10.4066714 16.9066877,10.4066714 L12.361166,10.4066714 L12.361166,19.6387509 L16.8605987,19.6387509 C18.393056,19.6387509 19.5279961,19.5251952 20.0580189,18.9971611 C20.3020032,18.7468145 20.4275145,18.4066509 20.403686,18.0603265 C20.4262949,17.7073718 20.3013981,17.3606676 20.0580189,17.1007807 C19.522235,16.5727466 18.3872949,16.5330021 16.8605987,16.5330021 L14.4812572,16.5330021 C14.2878053,16.5377963 14.1009062,16.4637729 13.9646181,16.3283816 C13.8283299,16.1929903 13.7547117,16.0082106 13.7611175,15.8176011 L13.7611175,14.0007097 Z"/>
    <filter id="brd-d" width="120.6%" height="121.9%" x="-10.3%" y="-7.8%" filterUnits="objectBoundingBox">
      <feOffset dy=".5" in="SourceAlpha" result="shadowOffsetOuter1"/>
      <feGaussianBlur in="shadowOffsetOuter1" result="shadowBlurOuter1" stdDeviation=".5"/>
      <feColorMatrix in="shadowBlurOuter1" values="0 0 0 0 0   0 0 0 0 0   0 0 0 0 0  0 0 0 0.204257246 0"/>
    </filter>
  </defs>
  <g fill="none" fill-rule="evenodd">
    <use fill="#000" filter="url(#brd-a)" xlink:href="#brd-b"/>
    <use fill="#FE5D86" xlink:href="#brd-b"/>
    <use fill="url(#brd-c)" style="mix-blend-mode:soft-light" xlink:href="#brd-b"/>
    <circle cx="16" cy="15" r="14.5" stroke="#000" stroke-opacity=".097"/>
    <g fill-rule="nonzero">
      <use fill="#000" filter="url(#brd-d)" xlink:href="#brd-e"/>
      <use fill="#FFF" fill-rule="evenodd" xlink:href="#brd-e"/>
    </g>
  </g>
</svg>
